data/themes/default-svg/headphones.svg

<svg height="14" width="14" xmlns="http://www.w3.org/2000/svg"><path d="m7 1.0000248c-1.472525.00403-2.993968.4818935-4.136604 1.5s-1.863396 2.587205-1.863396 4.5000002v5c0 .5.5 1 1 1h2c.5 0 1-.5 1-1v-3c0-.5-.5-1-1-1h-1c0-.5 0-.5 0-1 0-1.4114252.513729-2.3474522 1.246094-3.0000002.732364-.6525475 1.726429-.9971905 2.753906-1 1.027475-.00281 2.03517.354394 2.765625 1.0039065.725007.6446695 1.226413 1.5866425 1.234375 2.9960937v1h-1c-.5 0-1 .5-1 1v3c0 .5.5 1 1 1h2c.5 0 1-.5 1-1v-5c-.007716-1.9108922-.734418-3.4878357-1.872712-4.5000002-1.144544-1.0177225-2.654765-1.5040265-4.127288-1.5z" fill="#fff"/></svg>

<?xml version="1.0" encoding="UTF-8" standalone="no"?>
<svg
   xml:space="preserve"
   width="14"
   height="14"
   version="1.1"
   id="svg1"
   xmlns="http://www.w3.org/2000/svg"
   xmlns:svg="http://www.w3.org/2000/svg"
   xmlns:rdf="http://www.w3.org/1999/02/22-rdf-syntax-ns#"
   xmlns:cc="http://creativecommons.org/ns#"
   xmlns:dc="http://purl.org/dc/elements/1.1/"><defs
   id="defs1" />
  <title
   id="title1">LMMS solo button (inactive)</title>
  <metadata
   id="metadata1">
    <rdf:RDF>
      <cc:Work>
        <cc:license
   rdf:resource="http://creativecommons.org/publicdomain/zero/1.0/" />
        <dc:title>LMMS solo button (inactive)</dc:title>
        <dc:creator>
          <cc:Agent>
            <dc:title>Rebecca Noel Ati, Stakeout Punch</dc:title>
          </cc:Agent>
        </dc:creator>
      </cc:Work>
      
    <cc:License
   rdf:about="http://creativecommons.org/publicdomain/zero/1.0/"><cc:permits
     rdf:resource="http://creativecommons.org/ns#Reproduction" /><cc:permits
     rdf:resource="http://creativecommons.org/ns#Distribution" /><cc:permits
     rdf:resource="http://creativecommons.org/ns#DerivativeWorks" /></cc:License></rdf:RDF>
  </metadata>
  
  
  
  <path
   id="headphones"
   fill="#fff"
   d="m 7,1.0000248 c -1.472525,0.00403 -2.993968,0.4818935 -4.136604,1.5 C 1.72076,3.5181313 1,5.0872298 1,7.000025 c 0,1.60032 0,3.357065 0,5 0,0.5 0.5,1 1,1 h 2 c 0.5,0 1,-0.5 1,-1 v -3 c 0,-0.5 -0.5,-1 -1,-1 H 3 c 0,-0.5 0,-0.5 0,-1 C 3,5.5885998 3.513729,4.6525728 4.246094,4.0000248 4.978458,3.3474773 5.972523,3.0028343 7,3.0000248 8.027475,2.9972148 9.03517,3.3544188 9.765625,4.0039313 10.490632,4.6486008 10.992038,5.5905738 11,7.000025 v 1 h -1 c -0.5,0 -1,0.5 -1,1 v 3 c 0,0.5 0.5,1 1,1 h 2 c 0.5,0 1,-0.5 1,-1 v -5 C 12.992284,5.0891328 12.265582,3.5121893 11.127288,2.5000248 9.982744,1.4823023 8.472523,0.9959983 7,1.0000248 Z"
   style="fill:#ffffff;fill-opacity:1" />
</svg>
